X:285
T: Blackwater #1
S: "Where's the Crack v/1" (DJ Taylor)
Z: B.Black
L: 1/8
M: 2/4
R: polka
K: G
D>E GA | Bd Bd/B/ | A/G/A BA | B/A/G EG |
D>E GA | Bd Bd/B/ | AG/A/ BA |1 B/A/G GE :|2\
B/A/G G2 ||
ga/g/ eg/e/ | dB dB/A/ | GF/G/ AB |1 AG ED :|2\
AG G2 ||
ga/g/ eg/e/ | dB dB/A/ | GF/G/ AB | AG EG |
D>E GA | Bd Bd/B/ | AG/A/ BA | B/A/G G2 ||
